X: 20041
Q: "Slow"
M: 2/4
L: 1/8
K: C
[|\
e2 e>d | c>A Ac | G>G ce | d(e/f/) e2 |\
e2 e>d | c>A Ac | G<G e>c | ({d}d2c) z/G/ |\
e2 e>d | c>A Ac | G>G cd | d(e/f/) {f}e2 |\
e2 e>d | c>A A(B/c/) | G<G e>c | ({e}d2 c)z |]


